X: 132
T: Dimitrija
O: Bulgaria
Z: Birgitt Karlson http://www-linux.gsi.de/~karlson/index_e.htm
M: 2/4
L: 1/8
Q: 1/4=80
K: Ddor
%%MIDI gchord z4fz3
%%MIDI program 109
%%MIDI bassprog 24
%%MIDI bassvol 40
%%MIDI drum d3dd2d2 35 37 37 37
%%MIDI drumon
"D" f2 ge|f3/2e/ ed| f2 ge|f3/2e/ d2|\
|:"Am" A2 Bc|"Dm" de fg|"C" f3/2g/ ec|\
[1 "Dm" d2 d/c/B/A/:|[2 "Dm" d2 d2| 
"Dm"[df]2 [dg]2|[df][df] [de]d|[df]2 [dg]2| [df]2 d2 \
|:"Am"cc "Dm" dd|"Gm"[dg][dg]/2[dg]/2 [dg][dg]|[1"Dm" [cf][df]/[dg]/ [de][df]|
"Dm" d2 d2:|[2 [df]2[de]2|d2 d2|\
|:"Am" A2 Bc|"Dm" de fg|"C" f3/2g/ ec|[1 "Dm" d2 d/c/B/A/:|[2 "Dm" d2 d2| 



